icons/device-desktop-outline.svg

<svg xmlns="http://www.w3.org/2000/svg" width="24" height="24" viewBox="0 0 24 24">
  <g fill="none" fill-rule="evenodd">
    <path fill="#000" fill-rule="nonzero" d="M19,2 C20.6568542,2 22,3.34314575 22,5 L22,5 L22,15 C22,16.6568542 20.6568542,18 19,18 L19,18 L13,18 L13,21 C13,21.5522847 12.5522847,22 12,22 C11.4871642,22 11.0644928,21.6139598 11.0067277,21.1166211 L11,21 L11,18 L5,18 C3.40231912,18 2.09633912,16.75108 2.00509269,15.1762728 L2,15 L2,5 C2,3.34314575 3.34314575,2 5,2 L5,2 Z M19,4 L5,4 C4.44771525,4 4,4.44771525 4,5 L4,5 L4,15 C4,15.5522847 4.44771525,16 5,16 L5,16 L19,16 C19.5522847,16 20,15.5522847 20,15 L20,15 L20,5 C20,4.44771525 19.5522847,4 19,4 L19,4 Z"/>
    <path fill="#000" fill-rule="nonzero" d="M16,20 C16.5522847,20 17,20.4477153 17,21 C17,21.5128358 16.6139598,21.9355072 16.1166211,21.9932723 L16,22 L8,22 C7.44771525,22 7,21.5522847 7,21 C7,20.4871642 7.38604019,20.0644928 7.88337887,20.0067277 L8,20 L16,20 Z"/>
  </g>
</svg>

<svg xmlns="http://www.w3.org/2000/svg" viewBox="0 0 24 24">
  <path d="M19 2a3 3 0 0 1 3 3v10a3 3 0 0 1-3 3h-6v3a1 1 0 0 1-2 .12V18H5a3 3 0 0 1-3-2.82V5a3 3 0 0 1 3-3zm0 2H5a1 1 0 0 0-1 1v10a1 1 0 0 0 1 1h14a1 1 0 0 0 1-1V5a1 1 0 0 0-1-1z"/>
  <path d="M16 20a1 1 0 0 1 .12 2H8a1 1 0 0 1-.12-2H16z"/>
</svg>
